!!!PDT:	1923
!!!LANG: Non-Tone
!!!LING_GROUP: Siouan
!!!REG: Dakotas
!!!COM: Anon.
!!!OTL: I Will Go
!!!MPN: Haretunulige [Wold Ghost]
!!!ODT: <1918//
!!!MLC: Fort Berthold Reservation, North Dakota, United States of America
!! Song was recorded during either the summer of 1912, 1915, or 1918.
!!!AGN: monody
!!!SOCIAL_FUNCTION: Mandan and Hidatsa War Songs
!!!AMT: irregular
!!!RWG: Transcribed pitches, durations, and meters are only approximate.
!! Drum Tempo: MM84
!! Drum-rhythm: (8 8) (8 8) (8 8) (8 8)
**kern
*ICvox
*Imale
*clefF4
*k[b-e-a-]
*M2/4
*MM84
8e-
8e-
=1
8g
8g
16g
16f
8f
=2
16f
16e-
8e-
4e-
=3
16e-
16c
8B-
8.G
16B-
=4
8B-
8B-
8.G
16B-
=5
(12B-
12G)
12G
(16F
16F
16E-)
16E-
*M3/4
=6
8G
8G
16G
8.F
8F
16G
16F
*M2/4
=7
2E-
*M3/4
=8
4E-
4E-
4BB-
*M2/4
=9
4E-
8E-
8E-
=10
2E-
==
*-
!!!CNT: Mandan
!!!TXO: Mandan
!!!OCY: United States
!!!OCL: Frances Densmore
!!!YOR: Frances Densmore, "Mandan and Hidatsa Music",
!!!YOR: Bulletin 80, page 152, No. 83
!!!PPR: Smithsonian Institution, Bureau of American Ethnology
!!!PPR: Government Printing Office
!!!PDT: 1923
!!!PPP: Washington, DC, United States of America
!!!YEC: Electronic Copyright 2000 David Huron
!!!YER: August 2000
!!!YEN: United States of America
!!!ENC: David Huron
!!!RDT: August 18, 2000
!!!EEV: Release 1.0
!!!AIN: tom, vox
